images/23921.svg

<?xml version="1.0" encoding="UTF-8"?>
<svg xmlns="http://www.w3.org/2000/svg" xmlns:xlink="http://www.w3.org/1999/xlink" width="300pt" height="300pt" viewBox="0 0 300 300" version="1.1">
<defs>
<g>
<symbol overflow="visible" id="glyph0-0">
<path style="stroke:none;" d="M 0.640625 2.296875 L 0.640625 -9.171875 L 7.140625 -9.171875 L 7.140625 2.296875 Z M 1.375 1.578125 L 6.421875 1.578125 L 6.421875 -8.4375 L 1.375 -8.4375 Z M 1.375 1.578125 "/>
</symbol>
<symbol overflow="visible" id="glyph0-1">
<path style="stroke:none;" d="M 8.375 -8.75 L 8.375 -7.390625 C 7.9375 -7.796875 7.472656 -8.097656 6.984375 -8.296875 C 6.503906 -8.492188 5.988281 -8.59375 5.4375 -8.59375 C 4.351562 -8.59375 3.519531 -8.257812 2.9375 -7.59375 C 2.363281 -6.9375 2.078125 -5.984375 2.078125 -4.734375 C 2.078125 -3.484375 2.363281 -2.523438 2.9375 -1.859375 C 3.519531 -1.203125 4.351562 -0.875 5.4375 -0.875 C 5.988281 -0.875 6.503906 -0.972656 6.984375 -1.171875 C 7.472656 -1.367188 7.9375 -1.664062 8.375 -2.0625 L 8.375 -0.734375 C 7.925781 -0.421875 7.453125 -0.1875 6.953125 -0.03125 C 6.453125 0.113281 5.921875 0.1875 5.359375 0.1875 C 3.921875 0.1875 2.789062 -0.25 1.96875 -1.125 C 1.144531 -2.007812 0.734375 -3.210938 0.734375 -4.734375 C 0.734375 -6.253906 1.144531 -7.453125 1.96875 -8.328125 C 2.789062 -9.210938 3.921875 -9.65625 5.359375 -9.65625 C 5.921875 -9.65625 6.453125 -9.578125 6.953125 -9.421875 C 7.460938 -9.273438 7.9375 -9.050781 8.375 -8.75 Z M 8.375 -8.75 "/>
</symbol>
<symbol overflow="visible" id="glyph0-2">
<path style="stroke:none;" d="M 1.21875 -9.875 L 2.390625 -9.875 L 2.390625 0 L 1.21875 0 Z M 1.21875 -9.875 "/>
</symbol>
<symbol overflow="visible" id="glyph0-3">
<path style="stroke:none;" d="M 1.28125 -9.484375 L 3 -9.484375 L 7.203125 -1.546875 L 7.203125 -9.484375 L 8.453125 -9.484375 L 8.453125 0 L 6.71875 0 L 2.515625 -7.921875 L 2.515625 0 L 1.28125 0 Z M 1.28125 -9.484375 "/>
</symbol>
<symbol overflow="visible" id="glyph0-4">
<path style="stroke:none;" d="M 1.28125 -9.484375 L 2.5625 -9.484375 L 2.5625 -5.59375 L 7.21875 -5.59375 L 7.21875 -9.484375 L 8.5 -9.484375 L 8.5 0 L 7.21875 0 L 7.21875 -4.515625 L 2.5625 -4.515625 L 2.5625 0 L 1.28125 0 Z M 1.28125 -9.484375 "/>
</symbol>
</g>
</defs>
<g id="surface19905">
<rect x="0" y="0" width="300" height="300" style="fill:rgb(100%,100%,100%);fill-opacity:1;stroke:none;"/>
<path style="fill:none;stroke-width:1.2;stroke-linecap:butt;stroke-linejoin:miter;stroke:rgb(0%,80%,0%);stroke-opacity:1;stroke-miterlimit:10;" d="M 53.246094 98.035156 L 56.285156 113.6875 "/>
<path style="fill:none;stroke-width:1.2;stroke-linecap:butt;stroke-linejoin:miter;stroke:rgb(0%,0%,0%);stroke-opacity:1;stroke-miterlimit:10;" d="M 56.285156 113.6875 L 59.320312 129.339844 "/>
<path style=" stroke:none;fill-rule:nonzero;fill:rgb(100%,100%,100%);fill-opacity:1;" d="M 46.246094 90.035156 L 60.246094 90.035156 L 60.246094 106.035156 L 46.246094 106.035156 Z M 46.246094 90.035156 "/>
<g style="fill:rgb(0%,80%,0%);fill-opacity:1;">
  <use xlink:href="#glyph0-1" x="46.246094" y="102.411133"/>
  <use xlink:href="#glyph0-2" x="55.552734" y="102.411133"/>
</g>
<path style="fill:none;stroke-width:1.2;stroke-linecap:butt;stroke-linejoin:miter;stroke:rgb(0%,0%,0%);stroke-opacity:1;stroke-miterlimit:10;" d="M 59.320312 129.339844 L 74.394531 134.535156 "/>
<path style="fill:none;stroke-width:1.2;stroke-linecap:butt;stroke-linejoin:miter;stroke:rgb(0%,0%,100%);stroke-opacity:1;stroke-miterlimit:10;" d="M 74.394531 134.535156 L 89.46875 139.730469 "/>
<path style="fill:none;stroke-width:1.2;stroke-linecap:butt;stroke-linejoin:miter;stroke:rgb(0%,0%,0%);stroke-opacity:1;stroke-miterlimit:10;" d="M 59.890625 137.472656 L 71.949219 141.628906 "/>
<path style="fill:none;stroke-width:1.2;stroke-linecap:butt;stroke-linejoin:miter;stroke:rgb(0%,0%,100%);stroke-opacity:1;stroke-miterlimit:10;" d="M 71.949219 141.628906 L 84.007812 145.785156 "/>
<path style="fill:none;stroke-width:1.2;stroke-linecap:butt;stroke-linejoin:miter;stroke:rgb(0%,0%,100%);stroke-opacity:1;stroke-miterlimit:10;" d="M 35.25 150.253906 L 47.285156 139.796875 "/>
<path style="fill:none;stroke-width:1.2;stroke-linecap:butt;stroke-linejoin:miter;stroke:rgb(0%,0%,0%);stroke-opacity:1;stroke-miterlimit:10;" d="M 47.285156 139.796875 L 59.320312 129.339844 "/>
<path style="fill:none;stroke-width:1.2;stroke-linecap:butt;stroke-linejoin:miter;stroke:rgb(0%,0%,100%);stroke-opacity:1;stroke-miterlimit:10;" d="M 89.46875 139.730469 L 92.507812 155.382812 "/>
<path style="fill:none;stroke-width:1.2;stroke-linecap:butt;stroke-linejoin:miter;stroke:rgb(0%,0%,0%);stroke-opacity:1;stroke-miterlimit:10;" d="M 92.507812 155.382812 L 95.542969 171.035156 "/>
<path style=" stroke:none;fill-rule:nonzero;fill:rgb(100%,100%,100%);fill-opacity:1;" d="M 84.46875 131.730469 L 94.46875 131.730469 L 94.46875 147.730469 L 84.46875 147.730469 Z M 84.46875 131.730469 "/>
<g style="fill:rgb(0%,0%,100%);fill-opacity:1;">
  <use xlink:href="#glyph0-3" x="84.46875" y="144.106445"/>
</g>
<path style="fill:none;stroke-width:1.2;stroke-linecap:butt;stroke-linejoin:miter;stroke:rgb(0%,0%,0%);stroke-opacity:1;stroke-miterlimit:10;" d="M 95.542969 171.035156 L 71.472656 191.945312 "/>
<path style="fill:none;stroke-width:1.2;stroke-linecap:butt;stroke-linejoin:miter;stroke:rgb(0%,0%,0%);stroke-opacity:1;stroke-miterlimit:10;" d="M 88.21875 167.460938 L 68.960938 184.191406 "/>
<path style="fill:none;stroke-width:1.2;stroke-linecap:butt;stroke-linejoin:miter;stroke:rgb(0%,0%,0%);stroke-opacity:1;stroke-miterlimit:10;" d="M 95.542969 171.035156 L 125.691406 181.425781 "/>
<path style="fill:none;stroke-width:1.2;stroke-linecap:butt;stroke-linejoin:miter;stroke:rgb(0%,0%,0%);stroke-opacity:1;stroke-miterlimit:10;" d="M 71.472656 191.945312 L 41.324219 181.558594 "/>
<path style="fill:none;stroke-width:1.2;stroke-linecap:butt;stroke-linejoin:miter;stroke:rgb(0%,0%,0%);stroke-opacity:1;stroke-miterlimit:10;" d="M 41.324219 181.558594 L 38.289062 165.90625 "/>
<path style="fill:none;stroke-width:1.2;stroke-linecap:butt;stroke-linejoin:miter;stroke:rgb(0%,0%,100%);stroke-opacity:1;stroke-miterlimit:10;" d="M 38.289062 165.90625 L 35.25 150.253906 "/>
<path style="fill:none;stroke-width:1.2;stroke-linecap:butt;stroke-linejoin:miter;stroke:rgb(0%,0%,0%);stroke-opacity:1;stroke-miterlimit:10;" d="M 48.082031 176.996094 L 45.652344 164.476562 "/>
<path style="fill:none;stroke-width:1.2;stroke-linecap:butt;stroke-linejoin:miter;stroke:rgb(0%,0%,100%);stroke-opacity:1;stroke-miterlimit:10;" d="M 45.652344 164.476562 L 43.222656 151.953125 "/>
<path style=" stroke:none;fill-rule:nonzero;fill:rgb(100%,100%,100%);fill-opacity:1;" d="M 30.25 142.253906 L 40.25 142.253906 L 40.25 158.253906 L 30.25 158.253906 Z M 30.25 142.253906 "/>
<g style="fill:rgb(0%,0%,100%);fill-opacity:1;">
  <use xlink:href="#glyph0-3" x="30.25" y="154.629883"/>
</g>
<path style="fill:none;stroke-width:1.2;stroke-linecap:butt;stroke-linejoin:miter;stroke:rgb(0%,0%,0%);stroke-opacity:1;stroke-miterlimit:10;" d="M 125.691406 181.425781 L 149.765625 160.511719 "/>
<path style="fill:none;stroke-width:1.2;stroke-linecap:butt;stroke-linejoin:miter;stroke:rgb(0%,0%,0%);stroke-opacity:1;stroke-miterlimit:10;" d="M 149.765625 160.511719 L 179.910156 170.902344 "/>
<path style="fill:none;stroke-width:1.2;stroke-linecap:butt;stroke-linejoin:miter;stroke:rgb(0%,0%,0%);stroke-opacity:1;stroke-miterlimit:10;" d="M 179.910156 170.902344 L 206.039062 152.617188 "/>
<path style="fill:none;stroke-width:1.2;stroke-linecap:butt;stroke-linejoin:miter;stroke:rgb(0%,0%,0%);stroke-opacity:1;stroke-miterlimit:10;" d="M 189.226562 201.398438 L 179.910156 170.902344 "/>
<path style="fill:none;stroke-width:1.2;stroke-linecap:butt;stroke-linejoin:miter;stroke:rgb(0%,0%,0%);stroke-opacity:1;stroke-miterlimit:10;" d="M 195.46875 196.15625 L 188.019531 171.757812 "/>
<path style="fill:none;stroke-width:1.2;stroke-linecap:butt;stroke-linejoin:miter;stroke:rgb(0%,0%,0%);stroke-opacity:1;stroke-miterlimit:10;" d="M 206.039062 152.617188 L 231.5 171.816406 "/>
<path style="fill:none;stroke-width:1.2;stroke-linecap:butt;stroke-linejoin:miter;stroke:rgb(0%,0%,0%);stroke-opacity:1;stroke-miterlimit:10;" d="M 213.101562 148.546875 L 233.46875 163.90625 "/>
<path style="fill:none;stroke-width:1.2;stroke-linecap:butt;stroke-linejoin:miter;stroke:rgb(0%,0%,0%);stroke-opacity:1;stroke-miterlimit:10;" d="M 209.933594 120.96875 L 206.039062 152.617188 "/>
<path style="fill:none;stroke-width:1.2;stroke-linecap:butt;stroke-linejoin:miter;stroke:rgb(0%,0%,0%);stroke-opacity:1;stroke-miterlimit:10;" d="M 231.5 171.816406 L 226.304688 186.890625 "/>
<path style="fill:none;stroke-width:1.2;stroke-linecap:butt;stroke-linejoin:miter;stroke:rgb(0%,0%,100%);stroke-opacity:1;stroke-miterlimit:10;" d="M 226.304688 186.890625 L 221.109375 201.964844 "/>
<path style="fill:none;stroke-width:1.2;stroke-linecap:butt;stroke-linejoin:miter;stroke:rgb(0%,0%,0%);stroke-opacity:1;stroke-miterlimit:10;" d="M 231.5 171.816406 L 260.855469 159.363281 "/>
<path style="fill:none;stroke-width:1.2;stroke-linecap:butt;stroke-linejoin:miter;stroke:rgb(0%,0%,100%);stroke-opacity:1;stroke-miterlimit:10;" d="M 221.109375 201.964844 L 205.167969 201.679688 "/>
<path style="fill:none;stroke-width:1.2;stroke-linecap:butt;stroke-linejoin:miter;stroke:rgb(0%,0%,0%);stroke-opacity:1;stroke-miterlimit:10;" d="M 205.167969 201.679688 L 189.226562 201.398438 "/>
<path style=" stroke:none;fill-rule:nonzero;fill:rgb(100%,100%,100%);fill-opacity:1;" d="M 211.109375 193.964844 L 231.109375 193.964844 L 231.109375 209.964844 L 211.109375 209.964844 Z M 211.109375 193.964844 "/>
<g style="fill:rgb(0%,0%,100%);fill-opacity:1;">
  <use xlink:href="#glyph0-3" x="211.109375" y="206.34082"/>
  <use xlink:href="#glyph0-4" x="221.079102" y="206.34082"/>
</g>
<path style="fill:none;stroke-width:1.2;stroke-linecap:butt;stroke-linejoin:miter;stroke:rgb(0%,0%,0%);stroke-opacity:1;stroke-miterlimit:10;" d="M 260.855469 159.363281 L 264.75 127.714844 "/>
<path style="fill:none;stroke-width:1.2;stroke-linecap:butt;stroke-linejoin:miter;stroke:rgb(0%,0%,0%);stroke-opacity:1;stroke-miterlimit:10;" d="M 253.796875 155.285156 L 256.914062 129.964844 "/>
<path style="fill:none;stroke-width:1.2;stroke-linecap:butt;stroke-linejoin:miter;stroke:rgb(0%,0%,0%);stroke-opacity:1;stroke-miterlimit:10;" d="M 264.75 127.714844 L 239.289062 108.519531 "/>
<path style="fill:none;stroke-width:1.2;stroke-linecap:butt;stroke-linejoin:miter;stroke:rgb(0%,0%,0%);stroke-opacity:1;stroke-miterlimit:10;" d="M 239.289062 108.519531 L 209.933594 120.96875 "/>
<path style="fill:none;stroke-width:1.2;stroke-linecap:butt;stroke-linejoin:miter;stroke:rgb(0%,0%,0%);stroke-opacity:1;stroke-miterlimit:10;" d="M 239.28125 116.671875 L 215.796875 126.632812 "/>
</g>
</svg>

<svg xmlns="http://www.w3.org/2000/svg" xmlns:xlink="http://www.w3.org/1999/xlink" width="300pt" height="300pt" viewBox="0 0 300 300"><defs><symbol overflow="visible"><path d="M.64 2.297v-11.47h6.5v11.47zm.735-.72h5.047V-8.436H1.375zm0 0"/></symbol><symbol overflow="visible" id="a"><path d="M8.375-8.75v1.36c-.438-.407-.902-.708-1.39-.907-.48-.195-.997-.297-1.548-.297-1.085 0-1.917.336-2.5 1-.574.657-.86 1.61-.86 2.86 0 1.25.286 2.21.86 2.875.583.657 1.415.985 2.5.985.55 0 1.067-.098 1.547-.297.49-.195.954-.492 1.39-.89v1.328c-.448.312-.92.546-1.42.703-.5.143-1.032.217-1.595.217-1.438 0-2.57-.437-3.39-1.312C1.144-2.008.733-3.21.733-4.735c0-1.52.41-2.718 1.235-3.593.82-.883 1.952-1.328 3.39-1.328.562 0 1.093.078 1.593.234.508.15.984.37 1.422.672zm0 0"/></symbol><symbol overflow="visible" id="b"><path d="M1.22-9.875h1.17V0H1.22zm0 0"/></symbol><symbol overflow="visible" id="c"><path d="M1.28-9.484H3l4.203 7.937v-7.937h1.25V0H6.72L2.515-7.922V0H1.28zm0 0"/></symbol><symbol overflow="visible" id="d"><path d="M1.28-9.484h1.282v3.89H7.22v-3.89H8.5V0H7.22v-4.516H2.562V0H1.28zm0 0"/></symbol></defs><g><path fill="#fff" d="M0 0h300v300H0z"/><path d="M53.246 98.035l3.04 15.653" stroke-width="1.2" stroke="#0c0" stroke-miterlimit="10" fill="none"/><path d="M56.285 113.688l3.035 15.652" stroke-width="1.2" stroke="#000" stroke-miterlimit="10" fill="none"/><path d="M46.246 90.035h14v16h-14zm0 0" fill="#fff"/><g fill="#0c0"><use xlink:href="#a" x="46.246" y="102.411"/><use xlink:href="#b" x="55.553" y="102.411"/></g><path d="M59.32 129.34l15.075 5.195" stroke-width="1.2" stroke="#000" stroke-miterlimit="10" fill="none"/><path d="M74.395 134.535l15.074 5.195" stroke-width="1.2" stroke="#00f" stroke-miterlimit="10" fill="none"/><path d="M59.89 137.473l12.06 4.156" stroke-width="1.2" stroke="#000" stroke-miterlimit="10" fill="none"/><path d="M71.95 141.63l12.058 4.155M35.25 150.254l12.035-10.457" stroke-width="1.2" stroke="#00f" stroke-miterlimit="10" fill="none"/><path d="M47.285 139.797L59.32 129.34" stroke-width="1.2" stroke="#000" stroke-miterlimit="10" fill="none"/><path d="M89.47 139.73l3.038 15.653" stroke-width="1.2" stroke="#00f" stroke-miterlimit="10" fill="none"/><path d="M92.508 155.383l3.035 15.652" stroke-width="1.2" stroke="#000" stroke-miterlimit="10" fill="none"/><path d="M84.47 131.73h10v16h-10zm0 0" fill="#fff"/><use xlink:href="#c" x="84.469" y="144.106" fill="#00f"/><path d="M95.543 171.035l-24.07 20.91M88.22 167.46l-19.26 16.73M95.543 171.035l30.148 10.39M71.473 191.945l-30.15-10.386M41.324 181.56l-3.035-15.654" stroke-width="1.2" stroke="#000" stroke-miterlimit="10" fill="none"/><path d="M38.29 165.906l-3.04-15.652" stroke-width="1.2" stroke="#00f" stroke-miterlimit="10" fill="none"/><path d="M48.082 176.996l-2.43-12.52" stroke-width="1.2" stroke="#000" stroke-miterlimit="10" fill="none"/><path d="M45.652 164.477l-2.43-12.524" stroke-width="1.2" stroke="#00f" stroke-miterlimit="10" fill="none"/><path d="M30.25 142.254h10v16h-10zm0 0" fill="#fff"/><use xlink:href="#c" x="30.25" y="154.63" fill="#00f"/><path d="M125.69 181.426l24.076-20.914M149.766 160.512l30.144 10.39M179.91 170.902l26.13-18.285M189.227 201.398l-9.317-30.496M195.47 196.156l-7.45-24.398M206.04 152.617l25.46 19.2M213.102 148.547l20.367 15.36M209.934 120.97l-3.895 31.647M231.5 171.816l-5.195 15.075" stroke-width="1.2" stroke="#000" stroke-miterlimit="10" fill="none"/><path d="M226.305 186.89l-5.196 15.075" stroke-width="1.2" stroke="#00f" stroke-miterlimit="10" fill="none"/><path d="M231.5 171.816l29.355-12.453" stroke-width="1.2" stroke="#000" stroke-miterlimit="10" fill="none"/><path d="M221.11 201.965l-15.942-.285" stroke-width="1.2" stroke="#00f" stroke-miterlimit="10" fill="none"/><path d="M205.168 201.68l-15.94-.282" stroke-width="1.2" stroke="#000" stroke-miterlimit="10" fill="none"/><path d="M211.11 193.965h20v16h-20zm0 0" fill="#fff"/><g fill="#00f"><use xlink:href="#c" x="211.109" y="206.341"/><use xlink:href="#d" x="221.079" y="206.341"/></g><path d="M260.855 159.363l3.895-31.648M253.797 155.285l3.117-25.32M264.75 127.715l-25.46-19.195M239.29 108.52l-29.356 12.45M239.28 116.672l-23.483 9.96" stroke-width="1.2" stroke="#000" stroke-miterlimit="10" fill="none"/></g></svg>
